icons/bruno.svg

<svg xmlns="http://www.w3.org/2000/svg" viewBox="0 0 32 32"><path d="M18,24.99634A6.75447,6.75447,0,0,1,16,24a6.753,6.753,0,0,1-2,.99634V28a2,2,0,0,0,4,0V24.99634Z" style="fill:#f44336"/><path d="M27.89722,9.79443A6.85865,6.85865,0,0,0,23.54779,6.244,7.96754,7.96754,0,0,0,18,4H14A7.96754,7.96754,0,0,0,8.45221,6.244,6.85865,6.85865,0,0,0,4.10278,9.79443,19.91752,19.91752,0,0,0,2,18.702V20a4,4,0,0,0,4,4V16H8v6a4,4,0,0,0,4,4V24a2,2,0,0,1-2-2V20h2v2h2V20h4v2h2V20h2v2a2,2,0,0,1-2,2v2a4,4,0,0,0,4-4V16h2v8a4,4,0,0,0,4-4V18.702A19.91752,19.91752,0,0,0,27.89722,9.79443ZM10,14V12h2v2Zm4,4V16h4v2Zm8-4H20V12h2Z" style="fill:#ffab40"/></svg>

<svg viewBox="0 0 32 32" xmlns="http://www.w3.org/2000/svg"><path d="M18 24.996A6.754 6.754 0 0116 24a6.753 6.753 0 01-2 .996V28a2 2 0 004 0v-3.004z" fill="#f44336"/><path d="M27.897 9.794a6.859 6.859 0 00-4.35-3.55A7.968 7.968 0 0018 4h-4a7.968 7.968 0 00-5.548 2.244 6.859 6.859 0 00-4.35 3.55A19.918 19.918 0 002 18.702V20a4 4 0 004 4v-8h2v6a4 4 0 004 4v-2a2 2 0 01-2-2v-2h2v2h2v-2h4v2h2v-2h2v2a2 2 0 01-2 2v2a4 4 0 004-4v-6h2v8a4 4 0 004-4v-1.298a19.918 19.918 0 00-2.103-8.908zM10 14v-2h2v2zm4 4v-2h4v2zm8-4h-2v-2h2z" fill="#ffab40"/><path d="M14 16v2h4v-2zM10 13v1h2v-2h-2v1zM20 13v1h2v-2h-2v1z"/></svg>
